X: 23598
T: Lillibullero
R: jig
M: 6/8
K: Amajor
|:ABA c2c|BcB d2d|ceA d2c|BAG A2E|
ABA c2c|BcB d2d|ceA d2c|BAG A3:|
|:a2e f2e|ef=g f2e|efg agf|edc B3|
fed cde|edc Bcd|e2A d2c|BAG A3:|

